images/small-shape-3.svg

<svg width="490" height="110" viewBox="0 0 490 110" fill="none" xmlns="http://www.w3.org/2000/svg">
<g clip-path="url(#clip0_851_4426)">
<path d="M-64.8599 369.518C-178.064 347.292 -327.927 287.298 -319.835 197.287C-316.45 159.354 -279.213 119.013 -236.693 86.3701C-163.094 31.812 -94.0145 3.2985 -49.2523 7.99694C-20.6543 10.8454 5.93664 27.0253 29.6275 55.6902C47.1883 77.2732 62.5951 103.901 77.0809 132.357C83.6848 145.321 90.0649 158.675 96.3044 172.096C138.762 98.309 183.099 38.2622 227.743 14.9117C259.496 -2.70491 338.429 17.3953 401.752 82.4822C497.436 180.364 404.205 272.426 308.902 321.586C198.952 378.311 60.3683 394.561 -64.7974 369.559L-64.8247 369.501L-64.8599 369.518Z" fill="#D0DEF6"/>
</g>
<defs>
<clipPath id="clip0_851_4426">
<rect width="490" height="110" fill="white"/>
</clipPath>
</defs>
</svg>

<svg xmlns="http://www.w3.org/2000/svg" width="490" height="110" fill="none" viewBox="0 0 490 110"><g clip-path="url(#a)"><path fill="#d0def6" d="M-64.86 369.518c-113.204-22.226-263.067-82.22-254.975-172.231 3.385-37.933 40.622-78.274 83.142-110.917C-163.094 31.812-94.014 3.3-49.253 7.997c28.599 2.848 55.19 19.028 78.88 47.693 17.561 21.583 32.968 48.211 47.454 76.667 6.604 12.964 12.984 26.318 19.223 39.739C138.762 98.309 183.1 38.262 227.743 14.912c31.753-17.617 110.686 2.483 174.009 67.57 95.684 97.882 2.453 189.944-92.85 239.104-109.95 56.725-248.534 72.975-373.7 47.973l-.027-.058z"/></g><defs><clipPath id="a"><path fill="#fff" d="M0 0h490v110H0z"/></clipPath></defs></svg>
